X:135
T:Soldier's Fancy. THO5.135, The
M:2/4
L:1/8
N:Grace notes moved to the following bar
B:Thompson's Complete Collection of 200 Favourite Dances Vol.5
F:https://www.libraryofdance.org/manuals/1780c-Thompson-Compleat-5.pdf
Z:vmp. Peter Dunk 2024
Q:1/4=120
K:D
DAFd|Af Td2|"^NB"{cd}edcB|AGFE|
DAFd|Af Td2|"^NB"{cd}ecA^G|A2A2:|
|:eAeA|fAfA|geae|dcBA|
eAeA|fAfA|gedc|d2d2:|
W:
W:Cross over 2 Couples ./.
W:Back again ./:
W:Lead down 1 Couple & hands 4 at bottom :/.
W:Right & left at top :/:

